Obsidian-SemiLight/actions/16s/anchor.svg

<svg viewBox="0 0 16 16" xmlns="http://www.w3.org/2000/svg"><path d="m8 2c-1.10457 0-2 .89543-2 2 0 .93198.6373 1.71554 1.5 1.9375v2.0625h-2.5v1h2.5v1 2.96875c-1.1876429-.076108-2.563625-.578736-3.5625-1.125l.5-.65625-.84375-.5625-1.59375 2.15625s.84332.52706.84375.53125l.46875-.625c1.3045785.741865 3.0935192 1.3125 4.6875 1.3125 1.598782 0 3.351983-.598672 4.65625-1.34375l.5.65625.84375-.5625-1.625-2.15625-.8125.59375.46875.625c-1.000522.553084-2.3296348 1.079217-3.53125 1.15625v-2.96875-1h2.5v-1h-2.5v-2.0625c.8627-.22196 1.5-1.00552 1.5-1.9375 0-1.10457-.89543-2-2-2zm0 1c.55228 0 1 .44772 1 1s-.44772 1-1 1-1-.44772-1-1 .44772-1 1-1z" fill="#4d4d4d"/></svg>

<svg xmlns="http://www.w3.org/2000/svg" viewBox="0 0 16 16">
  <defs id="defs3051">
    <style type="text/css" id="current-color-scheme">
      .ColorScheme-Text {
        color:#4d4d4d;
      }
      </style>
  </defs>
 <path style="fill:currentColor;fill-opacity:1;stroke:none" 
     d="M 8 2 C 6.89543 2 6 2.89543 6 4 C 6 4.93198 6.6373 5.71554 7.5 5.9375 L 7.5 8 L 5 8 L 5 9 L 7.5 9 L 7.5 10 L 7.5 12.96875 C 6.3123571 12.892642 4.936375 12.390014 3.9375 11.84375 L 4.4375 11.1875 L 3.59375 10.625 L 2 12.78125 C 2 12.78125 2.84332 13.30831 2.84375 13.3125 L 3.3125 12.6875 C 4.6170785 13.429365 6.4060192 14 8 14 C 9.598782 14 11.351983 13.401328 12.65625 12.65625 L 13.15625 13.3125 L 14 12.75 L 12.375 10.59375 L 11.5625 11.1875 L 12.03125 11.8125 C 11.030728 12.365584 9.7016152 12.891717 8.5 12.96875 L 8.5 10 L 8.5 9 L 11 9 L 11 8 L 8.5 8 L 8.5 5.9375 C 9.3627 5.71554 10 4.93198 10 4 C 10 2.89543 9.10457 2 8 2 z M 8 3 C 8.55228 3 9 3.44772 9 4 C 9 4.55228 8.55228 5 8 5 C 7.44772 5 7 4.55228 7 4 C 7 3.44772 7.44772 3 8 3 z "
     class="ColorScheme-Text"
     />
</svg>
